X:1
T:Title
%%score ( 1 2 3 ) { ( 4 6 ) | ( 5 7 ) }
L:1/8
Q:1/4=110
M:4/4
K:F
V:1 treble nm="Grand Piano, Soprano"
V:2 treble 
V:3 treble 
V:4 bass nm="Choir Pad, Wardle, 76.76 D"
V:6 bass 
V:5 bass 
V:7 bass 
V:1
 [CF]3 [CE] [A,F]2 [CG]2 | [CA]2 [EG]2 F4 | A4 z4 | [FA]4 [EG]4 | d4 c4 | B4 z4 | %6
w: By~Thomas~Wardle~(1831\-1909) * * *||||||
 [FB]2 [Gd]2 [Ac]2 [FA]2 | G4 z4 | [Fd]2 [Fd]2 [Fd]2 [Fd]2 | [Fc]2 [Fc]2 [_Ec]4 | B4 z4 | %11
w: |||||
 [FA]4 [EG]4 | A3 A G2 A2 | F2 D2 C4 | z4 c4 | G4 z4 | z8 |] %17
w: ||||||
V:2
 x8 | x8 | F2 z B [Fc]2 [FA]2 | x8 | F2 z B F2 z A | F2 z G [FA]4 | x8 | F2 E2 F4 | x8 | x8 | %10
 E2 z d [Fc]2 [FA]2 | x8 | x8 | x8 | [DB]2 [Ed]2 F2 z A | F2 E2 [CF]4- | [CF]4 z4 |] %17
V:3
 x8 | x8 | z2 F2 z4 | x8 | z2 F2 z2 F2 | z2 E2 z4 | x8 | x8 | x8 | x8 | z2 E2 z4 | x8 | x8 | x8 | %14
 z4 z2 F2 | x8 | x8 |] %17
V:4
 A,3 G, F,2 E,2 | E,2 C2 A,4 | C2 F,2 D,2[K:treble] D2 | C4 C4 | B,2 z D[K:bass] A,2 z C | %5
 B,2 C2 C4 | B,2 B,2 A,2[K:treble] C2 | D2 C2 A,4 | A,2[K:bass] A,2 B,2 B,2 | A,2 A,2 G,2 A,2 | %10
 .B,4[K:treble] C2 C2 | C2 =B,2 C4 | A,3 A, G,2 A,2 | F,2 D,2 C,4 | F,2 B,2 A,2 C2 | B,4 A,4- | %16
 A,4 z4 |] %17
V:5
 F,3 C, D,2 C,2 | A,,2 C,2 F,4 | F,2 D,2 A,,2 B,,2 | C,4 C,4 | z8 | G,2 C,2 F,4 | %6
 D,2 E,2 F,2 A,,2 | B,,2 C,2 F,4 | D,2 D,2 B,,2 D,2 | F,2 A,,2 C,4 | G,2 z B, A,2 F,2 | C,4 C,4 | %12
 z8 | z8 | B,,2 G,,2 A,,2 A,,2 | C,4 F,,4- | F,,4 z4 |] %17
V:6
 x8 | x8 | x6[K:treble] x2 | x8 | z2 G,2[K:bass] z2 F,2 | x8 | x6[K:treble] x2 | x8 | %8
 x2[K:bass] x6 | x8 | x4[K:treble] x4 | x8 | x8 | x8 | x8 | x8 | x8 |] %17
V:7
 x8 | x8 | x8 | x8 | x8 | x8 | x8 | x8 | x8 | x8 | z2 G,2 z4 | x8 | x8 | x8 | x8 | x8 | x8 |] %17

